X:1
T:Our country swains
T:Thomas Weelkes
T:Our country swains
C:Thomas Weelkes
%%score [ 1 2 3 4 ]
L:1/8
Q:1/4=108
M:4/4
K:G
V:1 treble nm="Soprano 1" snm="S 1"
V:2 treble nm="Soprano 2" snm="S 2"
V:3 treble nm="Soprano 3" snm="S 3"
V:4 alto nm="Alto" snm="A"
V:1
 z8 | G4 B3 c | d6 B2 | A3 A B4 | z2 AA Bc d2- | d2 Bc de f2 | g2 g4 =f2 | e3 e f2 ff | g4 z2 d2 | %9
w: |Our coun- try|swains, Our|coun- try swains|in the mor- ris dance,|_ in the mor- * ris|dance, in the|mor- ris dance, mor- ris|dance, Thus|
 e=f g4 f2 | e4 d4 | c4 z4 | z2 c2 de =f2 | e2 d2 c3 B | A2 B2 A4 | B8 |[M:3/4] d4 d2 | B3 c B2 | %18
w: woo and win their|brides, their|brides,|Thus woo _ and|win their brides, and|win _ their|brides:|Will for|our _ town,|
 g4 g2 | e3 =f e2 | z6 | z2 z2 g2 | a3 g ff | g2 d2 d2 | =f3 e dc | B2 B2 d2 | e3 d ed | e4 d2 | %28
w: Will for|our _ town,||The|hob- by horse, at|plea- sure, the|hob- by horse, at|plea- sure, the|hob- by horse, at|plea- sure,|
 d4 d2 |[M:4/4] d2 B2 A3 A | B2 A2 A2 G2 | A4 d4 | e2 =f2 e4 | f8 | z4 e4 | g8- | g4 =f4 | e8- | %38
w: fro- lic|rides. I woo with|tears, and ne'er the|near; and|ne'er _ the|near.|I|die|_ in|grief,|
 e4 d4 | c8 | B8 | ^c8 | z8 | z8 | z8 | z4 G4 | d8- | d4 c4 | B4 A4- | A2 G2 E4 | F4 G4- | G4 F4 | %52
w: _ and|live|in|fear.||||I|die|_ in|grief, and|_ _ _|live _|_ in|
 G2 G2 A3 A | B2 A2 A2 G2 | A4 d4 | e2 =f2 e4 | f8 | z4 e4 | g8- | g4 =f4 | e8- | e4 d4 | c8 | B8 | %64
w: fear. I woo with|tears, and ne'er the|near; and|ne'er _ the|near.|I|die|_ in|grief,|_ and|live|in|
 ^c8 | z8 | z8 | z8 | z4 G4 | d8- | d4 c4 | B4 A4- | A2 G2 E4 | F4 G4- | G4 F4 | G8 |] %76
w: fear.||||I|die|_ in|grief, and|_ _ _|live _|_ in|fear.|
V:2
 z8 | z4 G4 | B3 c d4- | d4 z2 dd | e2 f2 g2 fg | a2 g2 fedc | B2 e4 d2 | ^c3 c d4 | c2 B2 G2 A2 | %9
w: |Our|coun- try swains|_ in the|mor- ris dance, in the|mor- ris dance, the mor- ris|dance, in the|mor- ris dance,|in the mor- ris|
 G4 z2 =F2 | AB c4 B2 | A2 z c e=f g2- | g2 f2 g2 z2 | z2 d2 e=f e2 | d8 | d8 |[M:3/4] z6 | z6 | %18
w: dance, Thus|woo and win their|brides, Thus woo and win|_ their brides,|Thus woo and win|their|brides:|||
 d4 d2 | B3 c B2 | g4 g2 | e3 =f e2 | A2 d4 | B4 g2 | a3 g ff | g2 d2 B2 | c3 d cB | c4 B2 | %28
w: Will for|our _ town,|Will for|our _ town,|for our|town, The|hob- by horse, at|plea- sure, the|hob- by horse, at|plea- sure,|
 A3 B A2 |[M:4/4] B2 d2 d3 d | d2 d2 d2 ^c2 | d4 B2 AB | ^c2 d4 c2 | d4 z4 | z4 B4 | e8- | e4 d4 | %37
w: fro- * lic|rides. I woo with|tears, and ne'er the|near; and ne'er the|near; _ the|near.|I|die|_ in|
 c8- | c4 B4- | B4 A4- | A4 ^G4 | A8 | z4 A4 | d8- | d4 c4 | B8 | z4 d4 | g8- | g4 =f4 | e4 e4 | %50
w: grief,|_ and|live _|in _|fear.|I|die|_ in|grief,|I|die|_ in|grief, and|
 d8 | d8 | d2 d2 d3 d | d2 d2 d2 ^c2 | d4 B2 AB | ^c2 d4 c2 | d4 x4 | z4 B4 | e8- | e4 d4 | c8- | %61
w: live|in|fear. I woo with|tears, and ne'er the|near; and ne'er the|near; _ the|near.|I|die|_ in|grief,|
 c4 B4- | B4 A4- | A4 ^G4 | A8 | z4 A4 | d8- | d4 c4 | B8 | z4 d4 | g8- | g4 =f4 | e4 e4 | d8 | %74
w: _ and|live _|in _|fear.|I|die|_ in|grief,|I|die|_ in|grief, and|live|
 d8 | d8 |] %76
w: in|fear.|
V:3
 z8 | z8 | z4 D4 | F3 F G4- | G2 z2 G2 A2 | F2 G2 A4 | G4 c2 A2- | A2 A2 A4 | z2 G2 Bc d2- | %9
w: ||Our|coun- try swains|_ in the|mor- ris dance,|in the mor-|* ris dance,|Thus woo and win|
 d2 c2 B2 A2 | c2 G2 G3 =F | E4 G4 | AB c2 B2 A2 | G2 B2 A2 G2 | F2 G4 F2 | G8 |[M:3/4] z6 | z6 | %18
w: _ their brides, Thus|woo and win their|brides, Thus|woo _ and win their|brides, Thus woo and|win _ their|brides:|||
 z2 z2 G,2 | G3 A G2 | C4 C2 | G3 A G2 | F3 G A2 | G4 G2 | =F3 C DD | G2 G2 G2 | G3 G GG | G4 G2 | %28
w: For|Kate the next|prance, For|Kate the next|prance, the next|prance; The|hob- by horse, at|plea- sure, the|hob- by horse, at|plea- sure,|
 F3 G F2 |[M:4/4] G4 z4 | z4 z2 G2 | F3 F G2 D2 | A4 A4 | D4 A4 | G8- | G4 =F4 | E8- | E4 =F4 | %38
w: fro- * lic|rides.|I|woo with tears, and|ne'er the|near. I|die|_ in|grief,|_ and|
 G8- | G4 A4 | B4 E4 | E4 E4 | F8- | F4 G4 | A4 A4 | d6 c2 | B4 A4 | G8 | z8 | G4 c4- | c4 B4 | %51
w: live|_ in|fear, in|fear. I|die|_ in|grief, I|die in|grief, in|grief,||and live|_ _|
 A8 | B4 z4 | z4 z2 G2 | F3 F G2 D2 | A4 A4 | D4 A4 | G8- | G4 =F4 | E8- | E4 =F4 | G8- | G4 A4 | %63
w: in|fear.|I|woo with tears, and|ne'er the|near. I|die|_ in|grief,|_ and|live|_ in|
 B4 E4 | E4 E4 | F8- | F4 G4 | A4 A4 | d6 c2 | B4 A4 | G8 | z8 | G4 c4- | c4 B4 | A8 | B8 |] %76
w: fear, in|fear. I|die|_ in|grief, I|die in|grief, in|grief,||and live|_ _|in|fear.|
V:4
 z8 | z8 | G,4 B,3 C | D4 z2 G,2 | C2 D2 G,2 D2- | D2 E2 D2 D2 | G,2 C4 D2 | A,3 A, D2 D2 | %8
w: ||Our coun- try|swains in|mor- ris dance, in|_ the mor- ris|dance, in the|mor- ris dance, Thus|
 E=F G4 F2 | E4 D4 | C4 G,4 | A,B, C4 B,2 | A,4 G,2 D2 | E=F G2 C4 | D4 D4 | G,8 |[M:3/4] z6 | z6 | %18
w: woo and win their|brides, their|brides, Thus|woo _ and win|their brides, Thus|woo _ _ and|win their|brides:|||
 z6 | z2 z2 G,2 | G3 A G2 | C4 E2 | D3 E D2 | G,4 z2 | z6 | z2 z2 G,2 | C3 B, CG, | C4 G,2 | %28
w: |For|Kate the next|prance, For|Kate the next|prance;||The|hob- by horse, at|plea- sure,|
 D4 D2 |[M:4/4] G,2 G2 F3 F | G2 D2 =F2 E2 | D4 z4 | z8 | z4 D4 | E8- | E4 D4 | C8- | C4 D4 | E8 | %39
w: fro- lic|rides. I woo with|tears, and ne'er the|near;||I|die|_ in|grief,|_ and|live|
 E8- | E8 | A,4 A,4 | D8- | D4 E4 | F6 F2 | G8- | G4 =F4 | E8 | D8 | C8 | D8- | D8 | G,2 G2 F3 F | %53
w: in|_|fear. I|die|_ in|grief, I|die|_ in|grief,|and|live|in|_|fear. I woo with|
 G2 D2 =F2 E2 | D4 z4 | z8 | z4 D4 | E8- | E4 D4 | C8- | C4 D4 | E8 | E8- | E8 | A,4 A,4 | D8- | %66
w: tears, and ne'er the|near;||I|die|_ in|grief,|_ and|live|in|_|fear. I|die|
 D4 E4 | F6 F2 | G8- | G4 =F4 | E8 | D8 | C8 | D8- | D8 | G,8 |] %76
w: _ in|grief, I|die|_ in|grief,|and|live|in|_|fear.|

